static/logos/scale-wordmark-color.svg

<svg width="100" height="25" viewBox="0 0 100 25" fill="none" xmlns="http://www.w3.org/2000/svg">
<g clip-path="url(#clip0_1_1184)">
<path d="M80.8739 21.8858C80.7348 21.8858 80.5971 21.8584 80.4686 21.8052C80.3401 21.752 80.2235 21.674 80.125 21.5757C80.0267 21.4774 79.9487 21.3606 79.8955 21.2321C79.8423 21.1036 79.8149 20.9659 79.8149 20.8268V1.05894C79.8149 0.919871 79.8423 0.782163 79.8955 0.653679C79.9487 0.525194 80.0267 0.40845 80.125 0.310114C80.2235 0.211779 80.3401 0.13378 80.4686 0.0805696C80.5971 0.0273594 80.7348 -1.83085e-05 80.8739 3.68518e-08C81.013 -3.66557e-05 81.1507 0.0273275 81.2792 0.0805295C81.4077 0.133731 81.5244 0.211729 81.6228 0.310066C81.7211 0.408402 81.7992 0.525152 81.8524 0.653647C81.9056 0.78214 81.933 0.91986 81.933 1.05894V20.8268C81.933 20.9659 81.9056 21.1036 81.8524 21.2321C81.7992 21.3606 81.7211 21.4774 81.6228 21.5757C81.5244 21.674 81.4077 21.752 81.2792 21.8052C81.1507 21.8584 81.013 21.8858 80.8739 21.8858ZM98.9848 19.1119C99.0749 19.0059 99.1432 18.8832 99.1857 18.7508C99.2283 18.6184 99.2444 18.4789 99.2331 18.3404C99.2218 18.2018 99.1834 18.0668 99.1198 17.943C99.0564 17.8193 98.9691 17.7092 98.8631 17.6193C98.7571 17.5292 98.6345 17.461 98.5021 17.4183C98.3697 17.3757 98.2303 17.3596 98.0916 17.3709C97.9531 17.3823 97.818 17.4207 97.6943 17.4842C97.5705 17.5476 97.4605 17.6349 97.3705 17.7409C96.2763 19.029 94.6383 19.7679 92.8758 19.7679C89.9563 19.7679 87.581 17.3926 87.581 14.473C87.581 11.5535 89.9563 9.17835 92.8758 9.17835C95.2482 9.17835 97.2302 10.8828 97.6603 13.1317H91.1811C91.042 13.1317 90.9043 13.1591 90.7758 13.2123C90.6473 13.2655 90.5306 13.3435 90.4323 13.4419C90.3339 13.5402 90.256 13.657 90.2028 13.7855C90.1496 13.914 90.1222 14.0517 90.1222 14.1908C90.1222 14.3299 90.1496 14.4676 90.2028 14.5961C90.256 14.7246 90.3339 14.8412 90.4323 14.9397C90.5307 15.038 90.6473 15.1159 90.7758 15.1691C90.9043 15.2223 91.042 15.2497 91.1811 15.2497H98.8059C98.945 15.2497 99.0827 15.2223 99.2112 15.1691C99.3397 15.1159 99.4564 15.038 99.5547 14.9397C99.6531 14.8413 99.731 14.7246 99.7842 14.5961C99.8374 14.4676 99.8648 14.3299 99.8648 14.1908V14.0494C99.8648 10.1954 96.7296 7.06006 92.8754 7.06006C88.7878 7.06006 85.4624 10.3855 85.4624 14.473C85.4624 18.5606 88.7884 21.8858 92.8758 21.8858C95.2608 21.8858 97.4874 20.8746 98.9848 19.1119ZM76.2851 20.8268V14.049C76.2851 10.195 73.1499 7.05978 69.2958 7.05978C65.2081 7.05978 61.8827 10.3852 61.8827 14.4728C61.8827 18.5603 65.2081 21.8858 69.2958 21.8858C69.4349 21.8858 69.5726 21.8584 69.7011 21.8052C69.8296 21.752 69.9464 21.674 70.0447 21.5757C70.143 21.4774 70.2209 21.3606 70.2742 21.2321C70.3274 21.1036 70.3547 20.9659 70.3547 20.8268C70.3547 20.6877 70.3274 20.55 70.2742 20.4215C70.2209 20.293 70.143 20.1763 70.0447 20.0779C69.9464 19.9796 69.8296 19.9017 69.7011 19.8485C69.5726 19.7953 69.4349 19.7679 69.2958 19.7679C66.3763 19.7679 64.001 17.3926 64.001 14.473C64.001 11.5535 66.3763 9.17835 69.2958 9.17835C71.9817 9.17835 74.1672 11.3634 74.1672 14.0497V20.8271C74.1672 20.9662 74.1946 21.1039 74.2478 21.2324C74.301 21.3609 74.3789 21.4777 74.4772 21.576C74.5756 21.6743 74.6923 21.7522 74.8208 21.8054C74.9493 21.8587 75.087 21.886 75.2261 21.886C75.507 21.8859 75.7763 21.7743 75.9749 21.5757C76.1735 21.3771 76.2851 21.1077 76.2851 20.8268ZM44.2297 17.6499C44.2297 16.6163 43.8501 15.2066 42.0415 14.3595C40.9563 13.8511 39.5946 13.6423 38.2777 13.4404C35.1925 12.9673 34.0969 12.5721 34.0969 11.2958C34.0969 9.90545 36.025 9.17793 37.9298 9.17793C39.13 9.17793 40.8549 9.41997 42.2574 10.5733C42.3648 10.6617 42.4887 10.728 42.6216 10.7685C42.7547 10.809 42.8946 10.823 43.033 10.8095C43.1714 10.796 43.3059 10.7554 43.4286 10.6899C43.5513 10.6245 43.6599 10.5355 43.7483 10.4281C43.8367 10.3206 43.9031 10.1969 43.9436 10.0638C43.9841 9.93073 43.9979 9.79098 43.9845 9.65253C43.9709 9.51408 43.9303 9.37965 43.8649 9.2569C43.7994 9.13416 43.7105 9.0255 43.6031 8.93715C41.7162 7.3852 39.4764 7.05936 37.93 7.05936C33.8415 7.05936 31.9793 9.25517 31.9793 11.2953C31.9793 12.3358 32.3605 13.7549 34.176 14.6081C35.2672 15.1208 36.6348 15.3303 37.9573 15.5332C41.0235 16.0035 42.1122 16.3937 42.1122 17.6493C42.1122 18.9162 40.5997 19.7672 38.3493 19.7672C36.0454 19.7672 34.2895 18.833 33.4482 18.2758C33.214 18.1208 32.9278 18.0652 32.6525 18.1212C32.3774 18.1772 32.1356 18.3402 31.9806 18.5744C31.9038 18.6904 31.8507 18.8204 31.8242 18.9568C31.7976 19.0934 31.7982 19.2338 31.826 19.3701C31.8536 19.5064 31.908 19.6359 31.9858 19.7511C32.0636 19.8665 32.1633 19.9652 32.2792 20.042C34.0744 21.231 36.2302 21.8858 38.3486 21.8858C42.4113 21.8858 44.2296 19.7581 44.2296 17.6499H44.2297ZM59.5844 18.7602C59.7398 18.5263 59.796 18.2402 59.7405 17.9648C59.6851 17.6895 59.5225 17.4475 59.2887 17.2919C59.0547 17.1365 58.7686 17.0803 58.4933 17.1358C58.2179 17.1912 57.9758 17.3538 57.8204 17.5877C56.9134 18.9528 55.3955 19.7675 53.7606 19.7675C50.8411 19.7675 48.4658 17.3923 48.4658 14.4728C48.4658 11.5532 50.8411 9.17807 53.7606 9.17807C55.3958 9.17807 56.9134 9.99274 57.8204 11.3578C57.8973 11.4737 57.9964 11.5732 58.1119 11.6508C58.2274 11.7283 58.357 11.7823 58.4933 11.8098C58.6296 11.8373 58.7701 11.8376 58.9066 11.8108C59.043 11.784 59.1729 11.7305 59.2887 11.6535C59.4045 11.5765 59.5041 11.4775 59.5816 11.362C59.6592 11.2466 59.7133 11.117 59.7406 10.9807C59.7682 10.8443 59.7684 10.7039 59.7416 10.5674C59.7148 10.431 59.6613 10.3011 59.5844 10.1853C58.2838 8.22807 56.1064 7.05964 53.7606 7.05964C49.673 7.05964 46.3476 10.3851 46.3476 14.4728C46.3476 18.5603 49.673 21.8858 53.7606 21.8858C56.1067 21.8858 58.2838 20.7173 59.5844 18.7602Z" fill="black"/>
<path d="M5.69134 24.0223L0 18.331H5.59321L0 12.7378H11.2846V24.0223L5.69134 18.4292V24.0223Z" fill="url(#paint0_linear_1_1184)"/>
<path d="M22.7654 24.0224L0 1.25699H22.7654V24.0224Z" fill="url(#paint1_linear_1_1184)"/>
</g>
<defs>
<linearGradient id="paint0_linear_1_1184" x1="22.7654" y1="11.4622" x2="2.84567" y2="11.4622" gradientUnits="userSpaceOnUse">
<stop stop-color="#C4DBED"/>
<stop offset="0.552083" stop-color="#8596D6"/>
<stop offset="1" stop-color="#C1A6CC"/>
</linearGradient>
<linearGradient id="paint1_linear_1_1184" x1="22.7654" y1="11.4622" x2="2.84567" y2="11.4622" gradientUnits="userSpaceOnUse">
<stop stop-color="#C4DBED"/>
<stop offset="0.552083" stop-color="#8596D6"/>
<stop offset="1" stop-color="#C1A6CC"/>
</linearGradient>
<clipPath id="clip0_1_1184">
<rect width="100" height="24.0223" fill="white"/>
</clipPath>
</defs>
</svg>

<svg xmlns="http://www.w3.org/2000/svg" width="256" height="64" fill="none" viewBox="0 0 100 25"><g clip-path="url(#a)"><path fill="#000" d="M80.874 21.886a1.06 1.06 0 0 1-1.06-1.06V1.06a1.06 1.06 0 0 1 2.119 0v19.768a1.06 1.06 0 0 1-1.06 1.059Zm18.11-2.774a1.056 1.056 0 0 0-.12-1.493 1.059 1.059 0 0 0-1.493.122c-1.095 1.288-2.733 2.027-4.495 2.027a5.3 5.3 0 0 1-5.295-5.295 5.3 5.3 0 0 1 5.295-5.295 4.879 4.879 0 0 1 4.784 3.954h-6.479a1.06 1.06 0 0 0 0 2.118h7.625a1.06 1.06 0 0 0 1.059-1.06v-.14a6.997 6.997 0 0 0-6.99-6.99c-4.087 0-7.413 3.326-7.413 7.413 0 4.088 3.326 7.413 7.414 7.413 2.385 0 4.611-1.011 6.109-2.774Zm-22.699 1.715v-6.778a6.997 6.997 0 0 0-6.99-6.99c-4.087 0-7.412 3.326-7.412 7.414 0 4.087 3.325 7.413 7.413 7.413a1.06 1.06 0 0 0 0-2.118A5.3 5.3 0 0 1 64 14.473a5.3 5.3 0 0 1 5.295-5.295 4.877 4.877 0 0 1 4.871 4.872v6.777a1.06 1.06 0 1 0 2.118 0ZM44.23 17.65c0-1.034-.38-2.443-2.188-3.29-1.086-.509-2.447-.718-3.764-.92-3.085-.473-4.181-.868-4.181-2.144 0-1.39 1.928-2.118 3.833-2.118 1.2 0 2.925.242 4.327 1.395a1.059 1.059 0 1 0 1.346-1.636C41.716 7.385 39.476 7.06 37.93 7.06c-4.088 0-5.95 2.196-5.95 4.236 0 1.04.38 2.46 2.196 3.313 1.091.513 2.459.722 3.781.925 3.066.47 4.155.86 4.155 2.116 0 1.267-1.512 2.118-3.763 2.118-2.304 0-4.06-.934-4.9-1.491a1.06 1.06 0 0 0-1.17 1.766 11.12 11.12 0 0 0 6.07 1.844c4.062 0 5.88-2.128 5.88-4.236Zm15.354 1.11a1.06 1.06 0 0 0-1.764-1.172 4.865 4.865 0 0 1-4.06 2.18 5.3 5.3 0 0 1-5.294-5.295 5.3 5.3 0 0 1 5.295-5.295c1.635 0 3.152.815 4.06 2.18a1.057 1.057 0 0 0 1.76.004 1.055 1.055 0 0 0 .003-1.177 6.979 6.979 0 0 0-5.823-3.125c-4.088 0-7.413 3.325-7.413 7.413 0 4.087 3.325 7.413 7.413 7.413a6.979 6.979 0 0 0 5.823-3.126Z"/><path fill="url(#b)" d="M5.691 24.022 0 18.331h5.593L0 12.738h11.285v11.284L5.69 18.43v5.593Z"/><path fill="url(#c)" d="M22.765 24.022 0 1.257h22.765v22.765Z"/></g><defs><linearGradient id="b" x1="22.765" x2="2.846" y1="11.462" y2="11.462" gradientUnits="userSpaceOnUse"><stop stop-color="#C4DBED"/><stop offset=".552" stop-color="#8596D6"/><stop offset="1" stop-color="#C1A6CC"/></linearGradient><linearGradient id="c" x1="22.765" x2="2.846" y1="11.462" y2="11.462" gradientUnits="userSpaceOnUse"><stop stop-color="#C4DBED"/><stop offset=".552" stop-color="#8596D6"/><stop offset="1" stop-color="#C1A6CC"/></linearGradient><clipPath id="a"><path fill="#fff" d="M0 0h100v24.022H0z"/></clipPath></defs></svg>
